-----BEGIN PGP SIGNATURE-----

iQKTBAABCgB9FiEE70tMtd+4giIWpHOxWXqxLmYmKJgFAmmLJDdfFIAAAAAALgAo
aXNzdWVyLWZwckBub3RhdGlvbnMub3BlbnBncC5maWZ0aGhvcnNlbWFuLm5ldEVG
NEI0Q0I1REZCODgyMjIxNkE0NzNCMTU5N0FCMTJFNjYyNjI4OTgACgkQWXqxLmYm
KJgT/hAAmmV1hxFpDslGMMOlYn/r8Agk9CxGoWj7HvCsXsj27Fvk1u+JjPOm3oAV
YnmvUDGyJGOgdOHZ66qkwxcfO5iyzgqJcuCffEtYPr2yjaC6uEL1j7504lN+ydS7
CES80gXblJqQUJ/ap621As1vi9pAxblMBGfv6nAkz97iMbtdoZMgsFPhKaMId21t
bgUbLTXQlOj8m8Re47RmzycwVCqFO82xQpyBfuFr0a88ghxMcDadrswgXBx99Hm8
eYWj/7EqCI3xfolFvcx03p+QiKHsayCPgQxsNRsBFadxe54Le43vf9IUQXlD9vUX
pqMSVp/tHxPMhgD7Hiq2QotkeMAUhguh1zj7Ww5Cp/GOrJWOQxknopExmNO68SzP
TXvPCmHZGSvW4tTFFaV7JGjTf2zHoi8YYKfOdfT+Fqs/Ol0asRw6gifjsHa77WP8
ThsuUJUm956O/NsQXd73EdZerTDiJNQ/qV11djz5ilBT1st2OjeusAAV2tLOfDKC
K+Z1iurOGxOuVuoaMy3NgWUAJRPb9bRAVMcGSG0xoKC227P9yeXyjsief59UB6QH
ySR9IZyaluYB4BbXyLgEiIPnZFzPr6fr2D/nuo9U/83TBFRTzdEhnqD+RVvHRdns
a67XIf+DSOcjeRy+TNODlZXwgokXIS1tZmdzI4s2x7TWMTA4VQs=
=bJ+O
-----END PGP SIGNATURE-----
