-----BEGIN PGP PUBLIC KEY BLOCK-----
Comment: 14F2 6682 D091 6CDD 81E3  7B6D 61B7 B526 D98F 0353
Comment: Mozilla Software Releases <release@mozilla.com>

xsFNBFWpQAQBEAC+9wVlwGLy8ILCybLesuB3KkHHK+Yt1F1PJaI30X448ttGzxCz
PQpH6BoA73uzcTReVjfCFGvM4ij6qVV2SNaTxmNBrL1uVeEUsCuGduDUQMQYRGxR
tWq5rCH48LnltKPamPiEBzrgFL3i5bYEUHO7M0lATEknG7Iaz697K/ssHREZfuuc
B4GNxXMgswZ7GTZO3VBDVEw5GwU3sUvww93TwMC29lIPCux445AxZPKr5sOVEsEn
dUB2oDMsSAoS/dZcl8F4otqfR1pXg618cU06omvq5yguWLDRV327BLmezYK0prD3
P+7qwEp8MTVmxlbkrClS5j5pR47FrJGdyupNKqLzK+7hok5kBxhsdMsdTZLd4tVR
jXf04isVO3iFFf/GKuwscOi1+ZYeB3l3sAqgFUWnjbpbHxfslTmo7BgvmjZvAH5Z
asaewF3wA06biCDJdcSkC9GmFPmN5DS5/Dkjwfj8+dZAttuSKfmQQnypUPaJ2sBu
blnJ6INpvYgsEZjV6CFG1EiDJDPu2Zxap8ep0iRMbBBZnpfZTn7SKAcurDJptxin
CRclTcdOdi1iSZ35LZW0R2FKNnGL33u1IhxU9HRLw3XuljXCOZ84RLn6M+PBc1eZ
suv1TA+Mn111yD3uDv/u/edZ/xeJccF6bYcMvUgRRZh0sgZ0ZT4b0Q6YcQARAQAB
zS9Nb3ppbGxhIFNvZnR3YXJlIFJlbGVhc2VzIDxyZWxlYXNlQG1vemlsbGEuY29t
PsLBjgQTAQoAOAIbAwIeAQIXgBYhBBTyZoLQkWzdgeN7bWG3tSbZjwNTBQJpobDu
BQsJCAcCBhUKCQgLAgQWAgMBAAoJEGG3tSbZjwNTpYQQAK+60Ky1K+VzJMVvjTed
chr/ACHsjRXDHfJHWp2hDBDgGLjr0Muwo3XIaNyWhW1fwmxvyMULFVmWGb7qGTeI
82O8yhY3bLMN6iA+XZwf1PsCZYHTls2KTYRUHYixobOA+9L0mWqWriNHeoBXe3c+
SZ2jNYe/o4IR1X/zeVVpVkUqpzKcKmhpDOfgWKZBxrBRFUm0wJnFrL+AcjVpeQi8
CreR1AXzyRWT3pIGfpYilfTNSZNy7e3oruplcu0Jk3aDdtTsJP95aej7nyI1eBdA
k2hoMe4o2jCweaef5LO0y8u6G6Kie9/LUAqQZVQuU7Zce0m0l9MNPujYv1pUy5Rk
MxtRyrUOJQLP60a1f1WZgU2YOm9OgS6gO+NoZ7fr4/5wj3C8Y7Hyzn7I1KXkvj+v
6CF6u45xDPdfC5qj9p5HAE81bPmUpXFkeeIwn8La3NJoVjiagl7OxuoFi27F4oKS
GxnArPtIoiQYuIVsZ2pPvkhPLt2lLXbi5vGHfPKhK/kg/mvkUshiCK+jTpYZ078e
g+meCFXOoRNH6Qkd7Q1MgrKzOGAkuRVNWtnx1Ata8lxEqYuhaUlqW7okd1fNSdug
htvZH5TgDUjlzkAS1eLsFIRCqZIVBRUXgQvU02zt2OPdBuNgiXqRbZcSmsyKs1X2
2RG5i9WmTtP6Rv+ZL61pGsVAwsGPBBMBAgAiBQJVqUAEAhsDBgsJCAcDAgYVCAIJ
CgsEFgIDAQIeAQIXgAAhCRBht7Um2Y8DUxYhBBTyZoLQkWzdgeN7bWG3tSbZjwNT
UKoP/0a+v1e7i6qyMMdFBZJ8jSWrESWYVJGMXRrCw9fMztDWvFXt0LGKTgt6I6am
hVM6apuijb/Hl33fyru491hq/ZD5G42TYIb8uleS72uCZMTuizMSpCWKoqhdqNRn
3WvDX3CtPBhcuAtC/MzcJQA75nTKON/NrZhzRm0037ewXlWkaxPcVvXhphkNo2Dr
I8W+TLGnQHWVLivCAveWR5VA0d4B/SqoX20FqeQaPduCor/n9iVMza6xvfHjptUG
/Bfa3j82dgzmEScjnuKfBqZfpKIwlzZ7ZCYHMCdWtckROsMvUc6XgZQnqELi0vdj
DZ3vnXkGVLJE2RaGF1GnX+r23X6i9J7jwinZfZYXn9UDcBN9CEcpren4SQhX3xUI
xnXjH0ogh4HCPInIUG684QQhhkd2wB2p/XNhG0PqbqhtwGtGI1+g2xiY1jiOgOtW
6kj3qSwjFWl6ldpmRCGmVnWZDh450a1OgiXVxv/g+JtWAWcGDOtHiZDbuHjDMDBZ
0bB4ln+24aiqbcLpPB8iBqdqOI/IqqxUVSRGyv3LXYQNx9QJSroPXza38An6oTQk
gY7ve1dN1Nuo9OCTJ/Z62dlBBm6bcvvDjU29/Fl+f6AutQYMFfCouOi8Mm+3yJlM
8/IxPN6Y4e7N/jQir72x/lX09dn/lf37KYTdxMBsCT0wt319zsFNBFzwOeoBEACt
8eaLW7jX3n5tQQ+ICeGOBIVbzAnXlH9bjdTqollM+iiwkdlBNNEGku7+uQ9dTofe
m6cbSUXuh5kJNLy5tUIG4oGZLvpAjLdHP8zslgTglQymoWSbv2ss4pq8xoDbp6E5
1dkowkyFSuELZKMFHgPiJbfYXxQmbwEiFhGs4+21lwtI4tVO9zs1XbzJD9Xtomxk
cYaePeBxpI9JnrWIUKt70JPZi/QcxPMG2si/YitnCVamcVw8Wri+W7MAJW3SyNjJ
Uqx/cIOib8vdZVxvdWRIZmdkWkFO6vv4IotEBCflt6cD0EIy3Ijn3nDDf59v7wpd
WXidjzVjKF0F8jUiX6S/ZuEz4lvdotpCgJGhDmdi4pVCYbmShKbffgcSJ/BWn4wC
OHKPA+XB75zzPj17dcWR8D9GM/sgusJy2fbHDcOdADPynKW3Ok1CENJDx7DTDwm2
fPRMut4utSL1FMSl7zBDRabcPr1nw+zERjmSjm3R91ayrQ9UKlP/4P8Xkhjc3FFW
rRQ1Q7/SlkUmrTqSouQcOolGMa2ENNgqNeOY7oE5xnPs64TLAzQ9z66u0dHTMODA
S1A6C0l66LrPVYGoQLDkM7WQn7zznFdnKR2nsPOUi0mMdyrG/62iARtNvuF4xdsU
AoCKti3wOsXRuUhiXei4N4qdr8IaIEIFgYEKKtaqzwARAQABwsOyBBgBCgAmFiEE
FPJmgtCRbN2B43ttYbe1JtmPA1MFAlzwOeoCGwIFCQPCZwACQAkQYbe1JtmPA1PB
dCAEGQEKAB0WIQQJezEwd65ioC+E2k3xpmaPu31XLgUCXPA56gAKCRDxpmaPu31X
LopQEACKv8mYt4aMc0oA25UJXMRig2lXJDqOZBUSvFFm8t6XgdG0zFdzFo4gqpje
68kNyt9duhvOMsVwkzUr+5Di7FccvgwceU3X5ngWpnV/GcXg79m5viipWUdBRoyZ
90oi4D5K6fhlmszmWyiD7KDrjdtIdGnjAuprztkc/JBlIwlmu/40JyDR5Dfxp256
DlzsJ/HH8LbdjJG/F0XvtZUwcHefa7mDXtIWszsMoJnEoLzOkZvJ13rhJcTHVQIm
ClyS3o9+Pk6DTfy4Ad0w+9nF0rZp+8/GXZGilfn/NXMj0elYu5WiyCBqargRkrHp
ebNKW9jxRca02aDS2Yrf8dlseO1d9FXZPOBWIxDRG++TqRhBK8FUW00DikRDrrV5
RsIiXtgtRqH+hwknE33i8m8/KKC5/pUl3Af5f+vMKsT3s1mMX2zA+NmLUxJCXLz7
0WqLoShI8QEj+RLk9yuk97bo7KoNSv6xNwXotJKzp08VAnVNX/QddmV6Z7SnocEs
+S6Z0L69sEffMgUaCkH09mIt1yu0DaeOl7fM2iD3VcO6jJ94Dg8olkhBgrZERe3s
XR2fciFtsqHxYc9zP7YyL7vPbUQ8BogxEfIQZPGdpnG5pTM0NSX/mgkOWI2VJFDe
/rOFTdTk+8mKVnFdaUfHA48qIeS0V0zMLd4OZkrYlW3iKvZps6IAEACauiivWdvK
vJgKMyi3fvicXn4qL8nV1X6lmOBqDn4bb0N0mtpiqXfvG950+29rcCJSj6qSMVj8
ZHuwVktrEoWX6lpJbWwEdUh+35DnjfGOYN8gW8bx0CfyqEx50W++DK5Wj+L+DL7j
gJ/l7dMKxLdjijkg+v4yI516nzRbrx3x77U8n+H1V9bHrDfScESnr3PtWS4ze4yD
rr9Xp+YK8A7RkIctH2ToyEixin8utvfa56dGpUai7gIRZ+0btWY0FX6g/VRHwwhL
IzTsaFveQGuzFbXaGkOhRASitKtbQo2fD39qAMixkKOctN9A/nA3dZU8BlJj7258
+P36jQDOilr2Y7RlTSTZS5aXeAPbwILwKCNcDjV0keerGSqiV2zkiH0vAJcxVokn
+iMj6VOaM1RyxskgFara0Vt3IuAjnirES/OVuIkhgpebmGXBPcHqLWpFDtEdLv6Y
tOwScE0eYb5/SA3XsmK3qgzEAzBfchwl4PqAhiQAf/tbx5EgAUbFmwhEcgd9xMY5
w6+8/5FjoXwHYmdfjKT9iD7QxF3LnymskoKQQGWBHiwJjaA8LYPpopUg9we00zNd
SGNXv1Lau9AM//ATiusH8iLJj33ofQh6FviQG6W3TlLPqx/oIxxNj5bPAQy6dRKB
1TxlWr4X0pUWxuqBeObPoHS9j0ysxKPru87BTQRVqUD0ARAAr/Prvt+mhVSPjNDP
SDrTBVZ/7XLaUZvyIVggKa+snJoStrlJGTKKFgDVaYTOE3hP/+0fDdQh97rjr4aR
jd4hBbaNj0MzZdoSWYw3yT+/nidufmgPus0TIJMVO8I6rl3vgcfW/D3ovNrLW/Lj
kTuM9a+p+D1J7woCfMSWiFMmOLPKFT7RBuY8edCVjyA6RP9K9Gj1sURSeqNaHR9G
r4rW10s+FwUHWxxzbmIWqH0gApQYO6vyND5IMcKOBCWQU6Detuq1pQ6dUc+iF+sE
z3Rk3C6d4WBBjtkVJSJ0KKan8Q3gJefOCMNhdRQDjZLwbzr4bgoAkLbaBFCjiZxW
Z6HAdMfSCV8uZQrtMS7b0DUpY0vdH9Htl3JqOOkK9RorYDQBuPdkTYFINsmtWVsF
V/LmR891mOF3fBRaoVoMeJVwiZyNlFY+dyWWFzLp+GoTLcQtmuR7OkmOcBGxWSKP
cZfPqhf4dVQud7bDR2RNfJ1Hqa5kj8Z422sseYDwHf/T9OWWYvLwKGZhlUgpnzO3
WCGrd/6EVNeC1mKXt4F7BmADov4Rdcrp1mPXiVt7oIxLaS6eBNf2y1TWzjYj5ZFu
KqIukDEJfqpwsE5asnCw56nae+7luGs8em1J9GEXhWzXG15UVyQJaFwuB1iL8l7V
cEQz4ABVrSTUWLLAKDsyqUbq2gsAEQEAAcLDmwQYAQIADwUCValA9AIbAgUJA8Jn
AAJACRBht7Um2Y8DU8FdIAQZAQIABgUCValA9AAKCRAcacTlXpkF2y/FD/oDrZm1
43Rv9NV9InnVJ0brpqbB7aulFfhR1LDuJ/GjeqGAQgJCZdHlzT2pfCXXswUlYzcW
EatvGcDkoaB5Ya2qs+6nhBk8pT6XYRrZAtIlKIGrlCqoSBm9HXguGv+EIaEECr2z
/Funx9so0mP+5aJn65M9u3lPmuAonj6DcHoM07WsfsXvQ4ut3fabFmzilLGeAdED
KIw8Hn3JBUOxUyFrQlOoL4/3qK1TO+cidz/2bATQQyIG2kNOSgHBslU+e6/7sWOQ
4ufmzm7dEsf197zPXGdXR88LT+d2uU2K4GkCffNUKxZqy9bXxXPwr4JBjxLDQnDv
l50GAWjPZAwXEd8Okwl5+8xp0HuZ217WUqT8ib0oUUfwh2H1vrMPRr/46i6O6THp
CkV8BWF7axPYIibaeYwC4BkjZwK3tIL5ESf2f0xK4hbE3xhMTeqABQHoXd5rQ7SE
aUuX7PlQ59fRs0Cz55vH8/o9zMm0PN6qmZFvRBeqjnklZcu+ZdP9+CMXt81NMuzI
K1X7EfpkUoam8YkYkwcCkRvPZrSHLXZFkfnx4jW543dPOfycjnv6hhKyoXD9CBx0
ZcOicsYmw9XMilBGD3b8ZdK6RYX4ywKNU6KUdFJjXB88+Ynv6QxDit1emMCHA1gl
zV9/k36iYLEIqgWBiwJeUUIcUqzgnBFtN13cyRYhBBTyZoLQkWzdgeN7bWG3tSbZ
jwNTLqgQAJQZSI8pvDciSAZbX1nJLoUE1+AYgZbRjzYGvQqULJpedfRHj7i7aHuR
9H01KeFGGy9Gc8iSJkBNrsP4TDWd+mwNOe2LRzqD+BXD1ML+sLJeSQvO1EdVxYQF
2+cUlNKnYt4VodIZu+9l+ggZTPJTOhrU/3w2ZEhjVzEGiLNV/zvb3/MBoPh8CyXG
gr8myOMO8NStEe1o1mZSV7rQmX/IUXNHfPFv6kmWKKCg/atku36KmiYckiGhddbB
+RE71T96AnxlSFYSlm9E6do1z15Vy3kQEAPEvuAdaOVx4jPid0jV4T0B0RkN1RnA
5+OYrYNxeMUF9kL6OEleNjTGHek8pDP3SH0MiQzlYNwk9/p6n4wpJ3/eEjb8maax
xD5qXA3rHqDzMPJIyjcA8D1xS8QUZ7T4J6lVw3DTeNTh9pKseIxexS5UZsDaQdph
VR/MXlbkZu4dlmUbGhKKr4r4c0bRElQNrpuRIO+twlU3DWJSujA/4svCc2zLmQa5
Th6+fByg3XDstVtM9qrhEhqKq8APfeSID2r/9Q0qcriTzXP6FE1pYaWLIamCqH5X
swMio99PlMwt0f5mNN64us1LwoFxzYGZSlLDN1RF5OoeaA7ml54hyy87sY0wVayC
5xmIB0hUT/NC/5J8/qOFL6uMI+zR567nOXz9X6BcUTbDLeNMkSX1zsFNBGCizdUB
EAC1JEAGujKSo477dmrel6FEYzZp+3Z2OKKAqGFWD54mv5h98hTZDveX3OeJhLNU
yQVW4k93taQGeUQwifwFQaHTiinoxX6TNfSC67e//2L/RqA1LfXEB1fOZ/WLmxtB
TV5HKXJlFKKwzaK4XsFit9Kw4Ee/vVx/6Iz3grGvNeIHVsM0vgM3RPn68KgOOAdp
du16fhB2bo52MEJS/0jHx2FPg7MfAc5QruCiZOtAzofJvS+BCwNcpXY+z+lY5KT8
nZwKtBStp8WqRUAALebqRoZTy17piUBTsYVx/gw4/DXlZMzaJopbA+TAr1v9Gj/l
F9luqd17wQECgWSDRfyayEZUMG1gJpb7WpQDdkFxDNS+ixhSw1AL03Hxj3+2SoLA
gFTOzG4itJgfF6o9OHFIy8KaDaodeaZsDGxs7PcNM7AqlZJEY4JMYWmwsGpaKCMb
4v72IjH7uSvaAfy1hyTVE/JCbTiT250PzDBcK/KVNTM1V3zvqw3ejXHJJo7mfPwm
0z//E89y0UUxmYLTVsGf6NG5qkOpj6pMUv54qF6s5RmCzece3twQHPebyd4aDT8m
HIHBLqxAXuHQRMFqlUOUoJG68CAkciuN6Mvm/6RVGsf0vp7LkIB1Eb1Jt9+w3Bmi
jmjxKt0ZxfqGkWKqDWNla9m/nHv889Jbt8+400eyjFVGfwARAQABwsOyBBgBCgAm
FiEEFPJmgtCRbN2B43ttYbe1JtmPA1MFAmCizdUCGwIFCQPCZwACQAkQYbe1JtmP
A1PBdCAEGQEKAB0WIQRDYP4hCcSXYxhvjiHr5B6Q9vEvbQUCYKLN1QAKCRDr5B6Q
9vEvbY3rD/45uYVakKvR2ZXW2b7W24IvTmwnTfUoWXcSQffz0WaswyhWTj17sflS
ufvt7NBc70x7xHSdmBVRq8l0pwnOB/Uhm0urlWrmrnrcjyCCWvyslpp58Zi6/2OK
3H8Jraz668kxQeAx4E+YUU4qggXxCA4l2RKG3aUiR3pt3z1rIsugheUaLx3ori0R
Z4yKC12z0VhzJfujzFea31eoIhoxuQm2JTOPPrd03Q7zVQKPRO8rXspcC9yWHOuu
Jm6jas54NMFxCYorLZQplomNSqJ7O46DW3nXdkjOHLWhfODkIlvmOCyZmaO0mOvX
rV+/l3xihySPvfPb/PjvCvLpOERJ9hKQjEkiIg/lLBnI0x54dJlSdoxOrN3mQMvm
qc2uEkcIEHLFwgFwamm/dWNnVA1TWTRPH4zOl9m1sT/+J3D5DsjP1P/fOM3v0mFi
LW3PNppBHomgSI0ykceR2Q4ZHB92KkzugqXscqX7MkLNotMTiZsicLFKCf7VGEj6
sbNNdXGogqiditatrgRUECCC4yvE0yO4S1uwXnhDbvHb4f8x7D563or+y6rKHrdL
N93XgtYSPg1pHz20TPvqcnIkW4W0N4ZKa7rz8+LlLwuz0zEokmIgmZzeVCoNRMcS
ItztG1kCyABaUtzpScWxoKpconG5oyzuoUPumpIZ8fFhugHFrHtKqu23D/94LuuC
GIXN9ycRlCfr4Y9bcUlzk/V2JIu2j32yLHe5pYqO9KdlJy8857yiAm3UlClAAAGg
d93sfPOUbMm1T/IMv3fVYPqcROnpv92Tu3dpSmTxYUwbX0v4v1BsSmPEOLbCjM7s
IaDoWELua74qxKyisup3dBgqgEsbQ9vYrdnPc83vLXuR/UCLFrb/+msU1+kQbA/1
+XPZNS9J2130m9ycPP7/fIHre2a4KxQ9lpHeWFOQ2JdkbtZMAsDUCohQoWnEj5w5
DFo7b4fpdeI43fHwDY/N3WZnK5Qw+TZzoj9zVl/MlfEX9YlV+7O1lc0IahxgXiQH
dfTu466IqsgMxcNPc6nfAnREiemPLI+XDCi/fMhVBwbeZ9Y9yVc1whFIB1p0urrK
FMFRVuEx3aPaqBrW+1pWUf+bTMWGJvzxEt/X8WJVfvoPWr5qcb6BP5Kww93uFIZB
Db7qeAEC/HhPUge0WA+p81oDj2bxvdoCisajoFvObCHhev7sMzZ9KyQGyQZ0g9mA
DhXK7j88LloJPJ3Q2qUGCP+DtdFAwa8VGR2cQhxVlu/F3OfiPXp1L7jd1TMUwspO
FFuRRq6dpihk8hi6KpvAKgVfu8l2AExpPFh+QKVzkslJWv5f71Fg3CU6fiSJDMqy
1W2X+p+kOjDpCwaYD0nu/xW30kSDTnZERxlmYM7BTQRZS9m1ARAAvh1Nh4GgjpTF
Zy7uQRFz5PPXdZTBI+Y4hTpF2heoFzZDI6SLyz64Ooglum3ZglQ9ac+ChTSsO36a
w4b22kCM9WDmkcl7wf21fG9o8gJDVjFjDWbwTWREaKjgS6s/Yb8f9gje/BGySojx
ynTi3zyTUN94q9dhVjfiQ79UzXZdN9FyyIx2YO5tOo09hTWSZg16oxP47Mj1ATaS
6UIrQMcMnOp0kuc6SufXPSWsUA+g2lW0dmHgPvIHwUfcjWqT2elF01e9KOFe7im2
9G6zOS2MRx8cr6KRg/eNWpHh5aI4quRUhYk4Kw4ohQTbs9ed0YttS4PMK+sq6xHp
b28X6ZgrWnelPY9hfwcR4m7Ot3VQUG8JY9/aTlFCoeTgkhop+MCUI+dJeY8depIa
0PTzdEmEWRvPhTTv+CUdZ6v4z5LD6FhP+/5c6FCbcIb89Rp5fa53oYV5/KZf+0DU
VgmpXFU7J7ZrGgDeU7vIzmwr8kcx0vtsVm1dVwYLACpTaaQPbISQUDM8sEcqKAqD
7hWKaxNsb2M85L6q2/rnHq4g46yJzdR3b8EH+V9u+mUi9DIljDwcpvw7ReRQ9wPd
DWLynnglIeGImbjYfr324yaIl4vNORAkbsoCkS/qc5v6MvKvYNle5fzb9S9kCbNZ
mD9c5/bHPjj9ENeQvzrl2pFh6dc1o5cAEQEAAcLDsgQYAQgAJhYhBBTyZoLQkWzd
geN7bWG3tSbZjwNTBQJZS9m1AhsCBQkDwmcAAkAJEGG3tSbZjwNTwXQgBBkBCAAd
FiEE3OrF2WE1uRxOpnKru769uyTG81UFAllL2bUACgkQu769uyTG81UFUw//bW5T
7w2k8ukGfpIcm0gB98VgxKenSCmU6N+Ii0DwcNtzW+pmVWl2TbHIXDpvuD69ODWB
DMXu6gBkrVzNEsK3uhzGe0tWA+5I7Vke3iEkbll7VRQlIOrw+n5NMvjeuDqKsMt1
gMEEdgRKddYApEAi49vV7XnqkB2lLKfAnf6o/KqPm8MuQ+u0xYanupZCldwdpcx5
rybj79Es0iO9Gh/+3qOtR6ubOz3Vn78Lc3y6AP9pmtdOI2QX8foGK4hNmgHSP6uP
Lh/ERC9Nir0Lc2hoEhHEkQ8CnEaccp70r03VkEQuMJQJPUyRsGZ/gIm0SAm9JJxW
HXJk2/5NUN83pHAX0LA4zxtWs4fVW5f8v9eIhFFPTZ4au+/cS9D4GFx4mlY34awc
pAzrny2tntGEejY9HSJv4PuFZCmtyS2q61N9EU8yuBwVM9cp5HntzG+OT4HYugtI
6ibehM0S1Roy4ETwT+Ns41ffhCwdYMp8tzdeksQ35s7rkB9OJHj+q2dkGaV0FQb3
FutbSpxbP4zk/dLqyxuivdUPHGtf4W/qklxzCWBg0VDFA7PwatmEXRxTjx77RelT
Y0V7K54dDyVv3Jh2+FzuaQZzzuIhv4gtqHntaqLnYl3h/QNLbOTE3ppvn9RUSR98
3Bd+M3QhbbwZrgG1m+hdUZUmji+wbK0wV0xHNEH+4BAAjbVzdNOs7hMvjY1wVDRF
jvICVorNdNdU3ELy/9BAoiwOs2+zjDXmsX+3YtdzwKvdpQ24O0TvH4Vo3BkvKkJ7
5EU7LroAbYQ2423m1MY3eaBslmX7TUJ3XE+k7OZF8AmcftgP4nhC4IQSCtoBc9+n
cyGN4da1BpYO7b19tO0/HST8GHSrEcU9bGGdimS2eNkSgybA8wF6K0K9yvrpTNSZ
7OBVlzQfEn8s70Gyzs/d6C/rTA+defnv3AMaciuINSEdFyfYq4wjt5PikvgceMAA
kH/z69xTNg+6q3FQt/lyK7xX5qPMe2oFyDA1H+Cb/uL7ioo+jXh9gF+0fk8OP2IP
zxYhBfulpVtgclmOuaekzaKeIv8NFW7GoA9OghziExePxg95OpL/VyQ7PJiAUj1p
FovFk5HS6ejVZNEGJ/A5zLc1PBIcr/phu0luqhXAhImsZS6858GWQllWULNWw8bX
5Blo8AvcfFVdq9iAK7aHN7g45ZR7Ze6qKHDyFv4XWuE/rj9C2mM/GAstvU0gGmbo
6B1mNGMJuX3Gd3dG8fqFjE77OB2feJyfZ8UeF1nvG1hxlmuD1A5e6/osO9V7kjhX
KzM2zSO11zHQ/5PlUisoUBjJ/QIK4v9RBNGtbRKso5X9Fke692lVgrdggDJ3j2Qq
MuTo71rAVDLtxerc+GNq0GLOwU0EanRqpAEQAMXlH5d2npT9K6iuYEWvxpJQCJ2n
l/2QAQw0W0Ba0NpxGn+5YApTWlwLZtM64xcN0o6r7Ycb2YoAYFE/tkkQEasUcyPx
sAr1Fgng92aRNvBC3oWtWzUbZ4vg+MgzpjgNAAvydCG4XKniNDNdhhGqCLZrTL8k
yI5DIYqHAKNHACUmsFSmXKKY8nhd+a0YpOP/atwZCriYh0O8Kzr5gzJlHLyvxLzB
kX7KwumwRupA/CDMba7JsXwAy/iNwFP5ztZv1aBCyesCVCOxGhGBxLyzDAjOb5ld
QwHCC/nNHM7kbZgKm7O6/H/T9TTHV8mXV+ltbTvzlz4H6AhkxaZjeB3GXQmmoikq
kePkZddIFXvYeaw4FTO6Ly7RTHYqUWUy9EvwhflU+g/A5TNBrMkzXkH7mJOgXcmZ
iUhGh3vcFAetOPQ2TBMU71qNFkK16gc5g5hj+jeUkY0XBIiSofdnjBro/ZjbGmh6
MfTGwTblnY0SnYfXj+TJpwkEXQerZOH8Gi7sy1Gvd7PjfO3uHS/kYovcksBZ/PmS
K39THXyHgiarOyX8pJ6UMkzh5RQaKk7t0V+o7kxT+O6o23xGO9wgM7wKe3sz6Pnd
sA2xE8ljjbwWIPeepz7ZZJIRuZFparxLM3PnLA154lMtpzdS/FSVSayQ3b5QgzxA
RIfOm/l2fi7vHbTnABEBAAHCw7IEGAEKACYWIQQU8maC0JFs3YHje21ht7Um2Y8D
UwUCanRqpAIbAgUJA8JnAAJACRBht7Um2Y8DU8F0IAQZAQoAHRYhBIJ+ZYYIZ5YY
zTSfk2eORV12dnqjBQJqdGqkAAoJEGeORV12dnqjw28P/i2+Z4P1RorEkqJCbMvX
I8EdPTkzfikjeza31PS5Il+GPPwMTMOu6K6FOnDB5PPiI5T00GgFIbObFh+sUTjg
he+A0oxQq2gdYAVe37dIQw95g7JcUGFYEFVDoU77kprxwcp9NuFT1OItCHIIfC6V
YxmosgeAYhpfda4MRDEg1ulZdMhuTIuaXcWUfsF5ELMkEZmbVN6WixhK7fFHJu95
mviSGFIY2u9G5EodgFPfSqb1U2R8d7G/OD5Zj2uJ/nWJMI+cGTtd0+yUdJ7gTb+6
5lp84IgfOxeWrdPT8OrNy/Dt6VoZZGIb63GjhuGcScwvofjpXuzuCpv6x1JRVWKY
e6rtYVaeiNzD0hyDrJbbH/IXoO8JcYWFRs/UYWCDAswiDSBtJX3DJBrzj37TtH2g
hdSOuWWIHc3QDzLkXTwMIoPoV8+NvfNmq7Jmvp/ftHJKgxeCwzpziuUo9tHoOSzk
KODp0ct+YKss5ffxsMknGFjKzU1dFKUffXzJybTB2Ki7Y73BXyxdNdxI4r91zQz6
D5BwD/bc/OffmU6IiVQcc1eUPbwI+FuPGMeh5Ql5X6nqa7H3gVlOloVKPUOC0y0/
uFCjGFHpp0X6dEryvNLPIDFOrNJBik2sTmgm9/RCTEdJxVHe49+jxWL1QhhVBGGh
pSwgTyOWpMrd7tct+Inu/WMaHBwP/jTPJJCaVAZ/FIPHsAFHvupBNj/GPNdQoamX
ph5wtRhXYUKk1hC5cYdNFwmMel7MkWSnO9mqmLrtllcNfhfPnEFdgjRQICWefUys
yHzsnKCjnOBzFLsG5kDxhwPqpu2Q22+4+rq86yfJ/twVrohtxlVN94E3zh6HLSjL
qZZuVi3Sca1ldzf4mg194KoZFnmIdmqil/vEvRxL7TX641uKR8zCeXXSFWM/fOX1
Mj4PwebSmyQnydmqhkGu6nOzsVHj41Mf3onNDFkXJXu/4trI7N/4zQU+t+ylmQf3
ffEAGIn/3wEEIlyIAHUoMBBJR+X6WblkTM6JeAx45W3KFJSNb1OB/2oRC2CzX5Nx
D4vOtZwoK8A9dcR3E29YK3trRzUx0Ct8EKMpCrv/rmyJtN0TqepH7BoOVnXg3chs
BJ/3awit0/9Lgq4v1HuAIYV/bfE28gAD0NGaKCEVPWLKZb5pifRaTZQVKVKKzLVN
RNXmnp8IgnaKhBMD3bnazICkSnfQXKPaMLkSng+9M4PVyY3rncNgtdXCwozKgNy9
aBDsMUkbGGmRIo6gxWJpmNCkUH3MSfVbfz386JcYhyH5W0z2OEm+kR65zhdppnfg
QPZEi07ZC4SRFOlbZg/F6Ax9SNU1D/jm4nipwUIPf+y0FUH1nWyvlt1r710EC1FP
ZOCLBEWwzsFNBGRVQHMBEADVwPefm57SwJxmapfYVu0gVGyTf2uUaS+7FgAGxYFP
OvRFtFbuHjpXNZs5xTlmZsmun9uGCRJhFHd2ubNPrfJRnrZ2fDDp7ksmMZK3X3PN
xt6v0EcQuOoqp8B8s2y5ntlDmnvxzq6ImF7xaltaiBuynEnbR26tosaYrgqXbd9r
e0XQaeDVEuGgVxJUr9a0NnIL56U8qlyHVKu7qzD+vyS1+6E0hEbF1uP+UUc1U7MJ
dvcxMCqkjKc0YyhwUWepYtku0i2mEfE9SpWvosq9zeLdoyULoi8s2DQ27w7TzweD
cCH21GZco6yEuNiM95eoz152qhZaqnPENM2XomUUzA/45pwwqzJftar5lcL+jfKA
L+hyVhQq2K6gaDjt9II3YZLdXYZfbMWVPpIS8RBBvaDnIhItf1D+D0DIl2q19ot7
gW/q8zg/XGE5QOeOZ2i6WbcUaQLvTVkXt4WExJFQz1CGQYfpjPZO9LiG3paGDtpW
3gSsigl+P2PMk6nqT2+drkuaCSPyXX01OJRDuCT3wffBbiZGsg3FnbJAPjtX8sn6
1RqYlzlpz4jRU/tzXnGYoQnat8YIaGJJZDBlnDtjb+qgANIGUjbxGUFO5E/aLoB3
DIlT7vkLPEbMymv/AEuFlP581FXgcd3l2BHdjFqOmTNnrBcvZpomHOcUSYsEuiQ7
AwARAQABwsOyBBgBCgAmFiEEFPJmgtCRbN2B43ttYbe1JtmPA1MFAmRVQHMCGwIF
CQPCZwACQAkQYbe1JtmPA1PBdCAEGQEKAB0WIQSt1weUeXANyt/dUzfjbTsT89ky
dAUCZFVAcwAKCRDjbTsT89kydGB2D/4sCFrxWHVIhWlfNQdV3HzWQ/LEFJpe061s
HDq70SI9b7EJSIX+nKfsfWW76ECh140UAOxeaY40pwGNRFV/A7zWzrSAspgFfGlw
stBet804utgyeiSvkV+4jfNnQChKcShL25+d//uymNtrxGV1XWraSt3DUq1uIurc
Py/gTepF/HlKoID54lJq9oCHdoGLqW9GVRJmbPxFbCrqA/1ngGJNPIWnmNC/Vkol
vk4n7jgDSlL5G8YNGr9sABRBQssglU6GJMzvixv8E+Z5FhRL7557XQgVbhuysomi
cKhJBNdB7E6kfoAAVd5kNqQl/KNPGeXf4C0DhUSnVQkibRjB7SHqVPSKxIk9WndE
VlE+OrSD79WeIGy9iEsT/vSmH0iZTgdd026ZlWpeprCYgNHC/s1tiOlDxCfNw/e8
nldDj9s1T/FZ3V4zaB2ltcj0HjoRHt9BwglE2trBsRt/O4fLmcg0DOvOeyD58ALv
rDY6aufnjtCJjZ7LuPLuTv22UJcZdYC32KSQn3kEIuw67k5PE+Lj9RRLZ6fXINvH
l6PseHv2gRnHO5tbX6/k7X61eAw5Z3pmBfCq6rnS+z5fiaLsEoTZvUyLpmrZj4rD
t0ARthjOGxID5JE+7m+smAtM1CYbHFutID6UJS9Dx0/LBfPTS8qJDAj25Gq0rQtf
UEu4coiGDg6DEACeYVJmC7vAiwTaQFjBpsJIgUlnMe7SWC1HJitjxeHs+D5X2yUi
IwYbhIjKrl5R+ZTxteNzi9CQToofGxtvM3qAVUtfUoOPFEqH7+cb9EO1/D+JzuKJ
dl+CQSrMhWAiu2UNv8MrpkMx4AGclxllMkwALiVakkaCadnF8Agaa1xQ4DQIoZPj
ey7JgRPsvsdd3RMz5wlGdsRvubw57FP1eqrB7N+qiLUwYfaDyVEpAThnZ4QW8KK4
mcLDnjvC2klYRCsbDV6ovcBLxjTnVipuVtctuB/k5rj3KjrfR6Gr07Ggt3v4Z1bB
gGWv/QTM9RZ7OF0goq+HVE74VAYCXNgno+rsE/C+7d0Ldhh03cDH/x2PnTfpj6Ye
AOyeaVSTx2XOInQ7eHV+R79bzUAHHgBIGS1cB/UjB5FtvGpbw6AyEbrEdN6ISONq
/tKaUPRdU7GOEj6oGg0+i9aUKGo43FpuUGS6HQl3qR02JpIQz1x3rSQrcZP90EzK
/TJWGEtyLodBn4x/hxufQq1rLO5As5x1EI3cUX8k1Afe/osDUx1F+YmWALhR2J6k
FvW4KC1Ug+LNG5dYOPKPN49lE38CppRsSg0EeEjPScqFAYNuy3i6AjMlYhf7pSiT
A8LeO8mpBC21xyMDLqRcGbF/HJEwHkER4tjT6pU/K87GlcQaeVIdiZ0hLs7BTQRn
0pB9ARAA5UjKHSxk88UtbGgVPRaE/MfDwGGCcIE11kCH35IzQCmrZVxApKMGMqK1
6s5O1zoRWHQraKRsYodDVK/A12xgvTVxKQlIk5GKD/UO7V6H7aeWjye63vFP/9X7
YVDJYUIsN5C8uUCzdAcysxjFNzA2TeqL/PVnlDh7pF7ZopFTTQu1KiYPoIpbL2cB
qpNE3PN2d0nAjILKyFfhttTMDMTtZuCH8TT8WAEbDzstghOrJTpRLiW+hRcH7z1f
HAzE70jvgvXXyBcTLJvP4k3T/DzuFcAqdoqNqxK+hsoTiZq7xJeqY47rozGIxoXh
eyavegjCjyr1bl36ED63bbmKmratlkSuY8vjh14wJ4qZ6mMtNr0KjFfahWkNYY5g
VHIlGQsPLIfg7eAKj/mq/is5Mmo8V8o+2uNYUkoZ/g/hQPQZIFfZD6Y5/Zcdawwk
Ti3xPuPFAJIBBQzC3ozXyHVq4ipx+S4290mFyXYa8nIIwhuQDcCiK4ppI+ChUKYl
1tzoCj3J2YxQHlDWtikw0oIyy5U/05xfwWgcRUxc6+vR/pZ+P6IfK187ZVOqvD9y
qgLK4+hKuDGOzX9xFLPmD19nTOs61DI0HnIndg9Mbe9rX9ct+WuM9xPhlSR6P2eQ
WkI1Z0RlVYP/Pe9cEZJXXU30J3LrRBsPjJm8ONXYZD53AAXWjUEAEQEAAcLBkgQo
AQoAPBYhBBTyZoLQkWzdgeN7bWG3tSbZjwNTBQJqdGyCHh0CV2Ugbm8gbG9uZ2Vy
IHRydXN0IHRoaXMga2V5LgAKCRBht7Um2Y8DU11HEACFwqH7UhVmLoPhZrX5EJvC
RUQOzb3CvRXFi6ZJ6J204+VxYXY+VxAHWmAj4Yre/IeYjFtZxBLfTQI7lAspqiGH
ox4B9RuUwMvm6pnHkMLliY8tSSeFff1GPikVu27TswECDRX1xWCVP/Z8gn/E6Era
a2vwt0mC/9dWobC/vm5hsdmlxf5dwgcLkIoZKOgJoPlWygo09HXczXGOh2g1rv4G
Vm38shlpTbf05ve6JEvySaF7F+653c6KkQT7/q6SU91uux34JT2MvtaVDHxvK77f
TZAX+QOaJyLO9I+wNDbUsIF73h9qQQsZqHBk4UGKoe+S5KklgkhnZeUwSG4gSOEk
j29hOU+emwSiSLX1PQoeuqo5P+G/f7YktuSSzv8rHVHRdMTOhL1Y3rgisuD6HmKq
Wt09mKTsjGIx6PToccPSJKHu8ehlQxDGwSon2cXOSSsJoKQrT4U9cvYy2ueCjser
D594YJi/A5Dj6aMyF5TuYlFd3jLFxCZWpgUCX6OfMkRHMofu5sewjNj/TvElUhPd
L7LMNbP9L7/aYMywdH5A1PEvVJJuI3ymfR44aRnE2aEsgvj+PznDO8KCH9XfbQdF
FfIdejS6IIJ8hdapupqT5pfIj3bZY9/NCLTKmUCIra07WosIfzYa2n/IzVDURGLp
1qxfGzeBhPPtGqbZIteaKcLDsgQYAQoAJhYhBBTyZoLQkWzdgeN7bWG3tSbZjwNT
BQJn0pB9AhsCBQkDwmcAAkAJEGG3tSbZjwNTwXQgBBkBCgAdFiEECb7tY/NGKi3/
qzuHXstkl8GiAlYFAmfSkH0ACgkQXstkl8GiAlb0jhAAlu/hGFvjHomXvnHYt+nj
r97d9lUOHNR0uMrwD9pxEXslEG4lUlFqKMnm2eB2SeaWZvN+qXLOwxZRyIDBUlG+
KM0UN6Jx63nMmkFGxcRQC6DeJUIPUqVW8vOMKL0Rv2zrEJCNInwNkTTbSzjXB2q1
vWfOIMBICSD5gfYPOlMRplU0zf240MptoktgiMoD0xXVgcCupSV0Wyih8F7jMhlE
XK8wPsaavtebQhZgut+ad6ebUklgiS8ZR5Wg/x0SicBWEtXC/DC5+htXSp20x+Fm
yAXB/VdIcj0y0PjIBW0GoFOR8V5EucGMkr/LBjEaptp23VvnsjjLBNDXqhc2uVMX
VK7QjyL9+jSL/2iE2Xeik3cttoRuFPfszjGnLgyAvYW2F11zaBa8X/xMVFpfDsto
tJHsfA75jQKk61X8K3hHMoS6VjkOlX1vUlAmGktyMzP6kEMAzcom6JXoFx+jPk9m
jAXLvhSYTTZXOT+jK4j+jgoyKHLRTNZBWQ5lNO7h442S2AaJk6dEV2IspWB4sQNd
Mt2Fu7AZLb7BfcjuUs/0BakrwCFzzV5TBTozB1t/B8nUQu0ppr8mYyNpaSvloaun
zx3x49H2NgDjtnarR6wHrulElV7QxxUmW70ZAarTlLuVkqzqaL10dPN4fC5r/8hc
cwrSzdaExTu8bAncTb6lOy1/wBAAtLCR7MPdByE9X7kIBRhjsKYxcHrPMhTXzAJL
rVjxB0O+qa1Yd0xVOnjFPXh9Lpy8Hi4XNpwZAnsJUhZ5mDAQXNmJ6/d0qmdQ4aDR
ZBLCZBADQkKDr+pLQB5Q8g2OFa01xHu+gKoBh5FyOjjtQlyUP8oo1MKfbtu0dFoS
alN1O0LqzGJUSUU5tvdr20derAtanyAn41n7qaWu+8faGbUIDJBMNFgLuc3r1Ams
odHwcDcB5Hl+KBAcvC+Z9CVXZ6tkTXsZP4vm3QfFf8cpkKKb3U8Cmpr7uJjR4o8A
bmJpwAGsGL3POH97HSi++7GwEMpQUJK7sciK+cBWt1L+Rs7WonkjcwEynR2VDo9L
ot5khGHG2zRo89l52xfK2gvuQUshJ8nnkC6EmmyTP7nm6+ImGn8ffM0Fi1D52YWa
nhFGT82+7TO/o4a1pnLozlfbg9vNv84CkEwvzhwSZveJmJ70nZlhbrz8P3qw/T3H
oYi0ImUIh1BmRFzCaRDCC2r2wkPD3b+9IZ5h1Gf6gIDEnXh45sKxXBx8kBEu3jlu
0SfH7NEIAcAdAelXqpMZPqeqDnte4z2I013JMYpFT4iSWBv0tHFUBB9ufm5dhvmP
ajHmmPG1tdN/0tujtGTKBxZIpk9aZiAawpLqOZeQNr9PI6U/GRtqSek9tgwHO1FP
gm7RVTg=
=c9el
-----END PGP PUBLIC KEY BLOCK-----
