-----BEGIN PGP PUBLIC KEY BLOCK-----

mQSuBGSer2sRDADvWcyuvfizLlo6k/tkaGG6dBY5wSCePqFQXNCTpz1wPRkPvkwq
CGrugqOEMupwENV/023LkMNj58r4bZO6PpyKGN01LlJ0WI/zuFYYeZuqUQjX6dm7
flQVFJMlzD93LNYlKdSTSFHu3/1ShfFP1xgBM+K1UpvtA8MbMxlgyoKtasoNir37
RkEHqgfWnsEJJdQHRREi3gQm2U1gWJFRkBnIyvDmB7RH4u79XILm8Ua4xe3x2kc7
rYI8X45prSt30qO55goWOJRcRESfI5ZG/PXDtD88o40WNL4BCoXD6YAC+S3EDuQ+
MzNXhg2dRkr9ctnU0J4YcYW1Cye3tiok9KpX8ttX3jHmv1trYRhMAuQd5h+LyMmD
TqnxlU0eqXt3Gxu/3MqW4jUWyRKUNMgbL7dTDNlFalkrS7RrHuksSHmdB7hOXb6O
WFn1Cg8SeTkx1dNrzIf04PMozTvn43DLd5KbuvinVuBkL6jwEKrbEGg7Pdgce+Nt
pC4REZxx9Hhz89cBAI34yHjS5e5KPJzO0ezmmWiP11KYApsefOJV7QqV6rVtDADd
ecZdW9UNdZZCxA8PHzC0klentp7ghGNSI5oRfhaf/mdoAx2y4IJOb+NArb9OXGLc
IeREMAU8rEg5U3MHa/z9bLdcoppT2Tki0EBt9wKZWegyKH5Ve+fMdWbIMJM8xtzM
AJjRln6+FOQcTTXPMw9s+AtGuEgqTrFcXyoOOAnHEVzMoRP6GhuQuY9xwOHyySUV
KXX50gS3NsiQzGl5H/RWl1XKdyvDRH7OtPRBtu84RC7j6l99a3eCWuqHnbKuDeoo
w23qbdwrrOdPnonFjPpqY7V38a9A8IELZ9dXe03nIPdpZhGARyhvHHH+o6dfIz1i
8BVeY23J1osmjoSZwSeVFG3657kahSusGJ4UkM0xBD2mXm91hRiFkbEa2IHz89iX
pbQXtmG2a3i1rb0d3usVyuqazQJmvD5YjztVp0z9zSxGxhUYfaRBbMzyd10VBimm
f1P7IBMnb6SEDum1krM5GzdwmYgi+FUr1VoiOxcu/RWAtHauPeG1f9BN5ykLkEoM
AITWK91Kl/+tquuRMFDM14B1zjlOlX8QoREcsznqPBeU50Tfdzt80kOYt9o0KXpA
4bVTgM/BYijJpVP58LkFnVjVYFrIfk0NUmdXKcbPLJmx87iK6nnXyN7sPEbCeH3e
yidJNpXqoQ1Uj0dByDjpfChi6rF4GHeTcrpBhvXI3YfSbMnGbPNLeDrx7tzhhOJb
xEmgFhAPt/ZUD9yemHPc8HCrzmoDVTnNbcAExb68HG8imC4gfoyHZYZEmU3iFlPE
GuLWSy2XrpvNRZ42LK2Ysc2OUs2KPm5PnWNijARq3uBit2k5TiyA+654k7Mot9PA
j3aQ1tolW/EbP3MOmmsT/7yTYjQTIYVCVkdv6faF4RiQyhRTAcVM1qcQ+ZSxHlID
eA1ijBOLnR3ZCsaJY25HDOePWLNQ3FPrf9LDR14CGHoc68VHuyZiddblydrD2lCg
FTiR3ftYIP74kPezCEqnGmQKez7rr04HoEtqRNZ4QElOJUbttrNTLQvyz2SwwRVm
RLQbRmxldXJpYSA8ZmxldXJpYUBwb3N0ZW8uY28+iJAEExEIADgWIQQrhENMTBYN
y4Gqidfq/mYNwgTGpAUCZJ6vawIbAwULCQgHAgYVCgkICwIEFgIDAQIeAQIXgAAK
CRDq/mYNwgTGpIvrAP9HfqhKVEbj70Yj8T49Hg2SAzdJULKuor/HzpWInVCkQwD6
AhZScXQo+gs5/hkPVKuuk1PqcebMdLKAm2vR9fi4pQE=
=lurq
-----END PGP PUBLIC KEY BLOCK-----
