-----BEGIN PGP PUBLIC KEY BLOCK-----

mQINBFb+7ZIBEADKchyt5QILvWeM/fi5Jf9SQ+2f4ltU7DVtC9Y2pWrG/Bua6Yoc
wWMEo/XeT7yu/4cMDTH2aRR+9mSir3sVTIjfX+Pnfxdds3/zKZgrMrK0jvBRoWxi
RTIkFw0L7FqEj0D1LkzXqysLQshRn11AbijoYPaqksr9g6Zk1RgA1p/51mEMLL9v
AOULKbRoxhTNcfQQwnzhNRygocOJ3QF4ZyVUBkxOfxun7aZQz0OfW8YskincoUGk
piaQH08VPU6aZQsA8g2xEZLOTAGE9O7ffkDlCH40jp7KmRwutnXiJpGNN4dzUtHg
R/7LGqQJgxpf0FboM/TATRCEPTfPOkzEGaw6j3q9FN2+OVz4yxFR1FlVr6Klcua1
jxNWXQ2MmhrArUmNN8mcLKKSLc+deURgX8IsCEi66lmV74YBc2MXr2XfIgOyzimc
tY2C2VGJDo3albvlOHFJbCT5AVLPnX3wl+5Q2tV6Jd+1806iW1Cl/RQ1DYUzVAQ6
atFCOl0auNQpCjvFay6k775IxjUPGjTJ+m24SiQbwwxl7JANrgiPSRdqdY7r2IaF
O1B0gZ+qW9+yb7LzfU1gvhibrIXSsipHDwZE31bv2v8xaLe3PgjBNv5cNb2bHE0s
V1LQKU0R4EaaACFXS1zEcZol+sivnanbLCTq5kr1VSR6FFAnDtpQh1v5uQARAQAB
tB9TaW1vbiBTZXIgPGNvbnRhY3RAZW1lcnNpb24uZnI+iQJUBBMBCAA+AhsDBQsJ
CAcCBhUKCQgLAgQWAgMBAh4BAheAFiEENP+VJs/vDpejQOLkD9574OiPXkgFAmYN
RYoFCRDvi3gACgkQD9574OiPXkjzxBAAkSxHAVIqHBMXeAW7K/sgWpgJ/hPfi2W/
dkzLFfovJP65T8CjT4mqyB2bcZ7aKNTkplRVd+ldFAA3yLbxC7UqjddtdSJ7Td/B
5xSd5Qx/LR3DDUEgyNnFXUNSWt33P5ff2qgzF+FClctdzZvMAYrWKaaWryBEiRr2
TqxBsNpJxy7lusfJjrSlr+n+KSgVM4lxdvDlvgdb2OsPlni84D86nSZCZOiNmpU5
umipG6hJD1kjYPNBDlhwijrqRggQiNMUr2v0x1hX6ZLXQLMS4/z1A0HiDNQNgWfl
IgV/s1743aeR1lG1GplItEJAY0ii2wAkB58Tz3z1G1zn7pZa0XxR3R2WEYRk2rjc
Dfwct+SGE/UjTID39Galfs0HPFCsTDrYydOuywfhnlkfhEEwP/KvS/+QHA2wW9F1
7tbPyDNDXF/MXEDvM8W9AGnqksyA9MZM6kTV3mfKgKIwHKuA2f2O6MI33RveTXhE
N8ueGkBCPiN/KVIkMqY63I+/lmSAIjV/Q3ZxyfcOejis2cxKFGzFseIAI6dGzdOx
3SaImUC3KlBdY++KsPRyJY/QHiSQYCelsUq6nof2L19S+NVsxILbvK+AQ4vsxQdr
ZW77cYmYwMVx1xihXeYP72xEFEmsIDEisVh0Dl0/gLiICIG1uN0h/Hf2ZMzowLcj
KFSfBJH+TsK5Ag0EVv7tkgEQAMX9XJNL82oYajxpmQBC4BYZ5L7pQuIs4w9N5m69
QmflMqlSHFB7aAPtMPJzqquCsvvL4HP1izmmFXMI8EgeC2xVRiyxMA/0z/cWlcRG
R3h23y3sZ+d6PqcVRLS/mrbnvFbReMvL9097tZkJ0EeEAriyDjwn5AIbF0M5kFtn
w2yzgKI96eajZQBfKnhpKi+DhEBiEOWxIrpzmvZOQpgsSpHKcAcjsRpsw+O7bm2K
ACGulwuQgxt01HdyfAw9vxafH4jYXCfigBpJvRCKgWjt8H2ALDypgALV5N+ugYwM
5UGlEPRYSnrHNL/OPKewrCizkbaNtqGxy1u3j7TZFlFi28/6AigPX+c2ELO/MVm6
7JRLHwRl932+Ne2ZDCiFd3kDD7CdE1Pajllfg3+7DI1BJQiSoenNgsHOTAks0djX
SaeSVBD8+8ePPwV8XEr7P5u54X68X5NfftE5KwJb2Xg1/3jNhKd8QpYSE2GOVw+G
KgbNW1fm+IbJej+kWeBXg1p/DFurGkKlPVV33IgH/bgU5HjPhdb2WxuH3hPKOzRb
boYZM9dWaxYyhfQhXi+rI3MWG17o3QdX1yODOzDPwOqOt9XBnR3jCV051kXXV4AZ
vmBopsn4ptRktrwrxcS4H8nV3ZkbLaMmIoeHxxp4LGK9Qv+DnOIas4gfIE2yoYPs
nM6rABEBAAGJAjwEGAEIACYCGwwWIQQ0/5Umz+8Ol6NA4uQP3nvg6I9eSAUCZg1F
mwUJEO+LiQAKCRAP3nvg6I9eSF/CD/9oSSVr6isdstYmVrHq3hHmwC3tzAzlZ/yv
HhcCtC0n2LM2BsPB8wr2gg11xNEUHUCrz73v6HywjQtB/C9CkQiTu1DpA61VU8k1
OtiwMN+R/NiJv02Be97D/ay7YOLFnW9JrKRk3LJxCc3sKfDom1dcIpeLntD0fQEW
jJjT0ptTP0P70ecyQsU0Id4GrHeXEH3kRFBHaEvvHEJk/LHmXFq5GacElRouGME1
+B/aUuaj6cm0nh6zDJInXbcSTXSE9lHXJBw+ZGDdbY3nOgKFmbm0cDqMM2xjmpyI
unHxu2Jkt9Hiq5G8RPXlJpTOWaGSGjuQNKGSSxSZ/ob93SM9pX43NmlQZ9y/omY8
gPNIqKW6IqgXqr0yK8bADFkSHsysB56E8j4EoWwKr5A9LP/lvSv4QGNRNxpXV/nm
WNWHB06G2JFe8e56eVVBgTYYroHdJkNcZSMDjbOqN6yxryhAYn0lCLKSgCoMUvRO
lESSNOV+x+lWVMXtsAmFKQXEos3Xunw188qzH/WHKkuNJsu2XTfaMVJfxvMYa+7g
35cSnN7oq7mYHBR0hj96qJnxURRDKxs+a4EEtlyndYPu02B0G8Amm0rJ7u98VdBL
DSf4M190Nv4UmYc8uWigpmRt6wReMW7zdoYeZKNO6eQ55kWN+jBh0S7pQ0A7qbar
4wdBQ9dBzw==
=qhkT
-----END PGP PUBLIC KEY BLOCK-----
