-----BEGIN PGP PUBLIC KEY BLOCK-----

mQINBFfNZD4BEACo0YKCUEhTY7v8VZVw3csAtnsRSFQ18G8xfYIt7mJEBrtfiGG4
g28EjNeWQfN8wGIaAeRGl5nb7s9RRpxXStUu719jGX1Z9Sr8p/JOmBS5kdfAtYId
9Cl3VsGRvf4Smg1ClrEv6tQ97j+d1FY8QfgW/GS46YBOEeOFVQRtfi7Yv9lZkiBF
rzP0Nr7JV9u1GkBsFgNkVuYs/3RDYULItBwGFerduOyQCOt819QvHHSZkXqJWwNR
OA6lc8gW36lKbDHoZ1jSkDnDV0bW0cX1/6WJSzWYdcPiceA1vj/VDg0Kr23SVQ1P
yPvBirT7ToirQm6KrIiKHWLSg156ht8/K2C1Dgypf+YMseMbHQxVLrI2p4zpmxu3
B2SrSj3ImM5FO0XGd1gxn/qywNVJDQBfcYnndksD2i/9/Es8I/F6OymBZl4HWBvx
7ixm2JPXkmwVPEC/lJn3eCBb1fAaJSlroHtaAEteCWuE5/Mg/uYEh1UeAstP47N3
P0B3l1E4Ccw1ne2/O1BdsnXeUaI3YVYz9aZkVlL7ywda3h/goRKxc1b18bmgu/Ed
QmcTEMj29B3szMpetWNt1ZbaMJzfDw+z+SiQ3toOTUiqMuWq+l+JK0dVUzOvpGhG
VHv5m9CtJFP671ivEc4it0hJRH5kdW9aNbeG0g9TxHQqQMJIpeLvRq5WKwARAQAB
tCFBbGJlcnQgQXN0YWxzIENpZCA8YWFjaWRAa2RlLm9yZz6JAlQEEwEIAD4CGwMF
CwkIBwIGFQgJCgsCBBYCAwECHgECF4AWIQTKJixsg95NL7KKMyo6ak24Oeqm1wUC
ZPo/CAUJEtHPZQAKCRA6ak24Oeqm18dUEACeD2OgDgL1CTMkDH6dOhqE8Tavg55B
iNzhj7IbGA0baD5FUVg4wNsiPX8Y/QYXxoGDQNH89tp/6clwQtjlkblviGSd2C+s
RXxz9ZTlbe2yzDSzhsr8vkyRdM0b7gObxR2eHFmxdZEGuaV9R79eiY6Bce2NFPJ/
11Y13Cq+0Cdc0vfzOZfdCyDFeeAFpZgtnM2OXIKUhB3UpoxLWWCPhfns2BXwHv36
1YEIMLACxw4XCyjlIdKs7uJsEXaVKELjT4YTDkps9fN3LL0yVJtdv/njRJC98+5g
9T1H9Nm59kiCP+VEkv4Hj89BUUxO9whoYacwX0lihAX0TuCAB5nt21L+zk4uWQr3
tLBker2uNvWabHOTYllXk2yeiHTjYAUyEXND8mK9aNIq4gi3/c9Qjy0ibtih+YXc
TDu5cAxhQrQaxP7CL2cWjQBlmJHJq7izeLFoEstbbkMtiAqJRqOJsphUQMY3cakg
AfiFNquvsovbrTx5pqkL6XKhT6C1XEB6bR5kanlB7vFXFwlJJoe7Em/xD6b1RNuS
bS/yuHh7jICdVtNbaJ/O8OdKjDaa5SmU0IzjPrDWnd3YPM76b/7k211vFL+wH6KC
bIzZ22QhdQsdaQChtLxq9iCZuHvrM3kUKoiVnigYOP1v3kXZV6DNOsXDLGflafAt
KR2QJAzK+H9CbIkCVAQTAQgAPgIbAwULCQgHAgYVCAkKCwIEFgIDAQIeAQIXgBYh
BMomLGyD3k0vsoozKjpqTbg56qbXBQJi/nb/BQkNE9cgAAoJEDpqTbg56qbXOSwP
/3kd2wtsIyVBYiZ+3EBjTBQ1UtO+3v72uOm3+6fIKp20P25LsnpN+V2Z3bM/EgkX
GkPHcArmAkYCXyEG4BEFMbqbMNLKiHLSV0sCuhpvbMqf+EZ+cCXFm2xrwMaY2Eop
vzMTIqtozaCt1zZsIX+xDnIqYLRMcBDAwGMseizMphX7L9HfijWdllq58+s1Yw93
eGaLIKXm/OZENAlq2aQO+55jI8y3cV8mi9a2LFYUex2dDvaXaR6WSGk1znVGmBnq
UKb2CFZZMu84Q+FHm2lhD4LKQ9q2bOEtdS2Gd9MKmFA1/qdfuOOWWrtJ3gxpMCae
PTJ+hPIeN2o8Bi/bp0xsGVHaUDFfPZKjJBlUeAZB4RbieWXpd6Pbl3XIqc5fA7iD
dEG392/hDwhAofINljmEmi2DY6sDWEv3Oxv7qUqMyvRQQlryWGHBIqGVXMPR92s5
o/uklR+PJ3QKs+uWuB02ijh5XRtdXmS4Up8KCbBEcpbIkoNzUKaclF4UwlAZ8UyK
47K9iFWFTE0HNLuxXcgXbyvWfWIo314ZKBwGMBVbYspqrROFbVBdZxZPu+51xeNu
r2RC45OHt8EQzjvAeHKqEs/lM4gEFojFbbHzsCDiLYcpQzY+xX6PqvMzCIJ/Mg1R
L4gR9RNfnYxzclQoKo6upWU0nV3/j6aSyGXPBADagXMRiQJUBBMBCAA+AhsDBQsJ
CAcCBhUICQoLAgQWAgMBAh4BAheAFiEEyiYsbIPeTS+yijMqOmpNuDnqptcFAmEG
Yw8FCQsqBFEACgkQOmpNuDnqptc5mw//a8E4zzOIIs6ve8KkUfz6RVdVAGOkplOJ
9cnIIbopms265ceD0KSpqlLkgGONn/ROAvOe1xrJCw2SiELlc4Z/kM4nrwVaZvkn
F3pJCAOTDBhJlqXeMSGLDDEDV5k/nUeIGanmj4wAfkvKzjBMJSaZau3BCB18v/mI
0foEqIdUFFukoHNOu8mk4ZHRzdZqYu+f1waZR/tLGK71Dl916itsk+EbSir+XSdg
SJgn63f1p0bL2DOPLjShgs+o6L/Hvy3Jdq5nlfbSUHfqT213Y1Ld5k0ChNDPcSZo
F9mgFH9vUyE6G6gTWauH5EWiG/2HrDaaBQQQtXAPEUqElDpzfyPEoJriMgb6ezeA
Swt1Hsyk8WXkbYHZvuti0oCowWpE39NIIXIYzZoT0h+MKMsvkJT/FsRa2b7FhnMi
SNQjVbZdTVX+6SAzCxnS6Mb4fojXlWz3TFAq4uev3xPG5OVi5VdkvzO6sj2XVEoi
U+9jG06sl6gcmhciBXerPG8XJeQILPyfD8+vHj2IFnrQD7ORMBBFTYddmAkvrKop
suYACVTZqTDaxvih9VMgj7KFZAQXpylDMcS+IBSJIfGSOq1SQAER/KJlvKGKMmt5
ego5oQcR73sPJdCuFzo+Ia/dr1PCM2tYTb1AMJ+hBRSPV1n7XOleel5pKNkBDzNh
s2Ne6r9xAHSJAlQEEwEIAD4CGwMFCwkIBwIGFQgJCgsCBBYCAwECHgECF4AWIQTK
Jixsg95NL7KKMyo6ak24Oeqm1wUCXyCXwgUJCUl/BAAKCRA6ak24Oeqm18ihD/9e
xIQawza37Xn1jshz56AVNV8LUQ/kYKYRhaIlHkYq7iRIUCs43RloPK1M332SgOQm
ZjrZfBVA2GmtwuMvE9y4LLp6cFUvEwr5npXURwafEnWmvs33QnSdenYN3U7vVb/2
U3Zq4qPA52ROWqUCYpjlrqmlcAVtliDad4k6lI7tl7PFCM/zenq1q4jWNO8XLCO7
LXF7JuntkKJhZ8ou1mtmTX3ch9lRG5+LTobidEv/8q3X5pTm3LmyiSLjpCdOkzRp
TvcPkRlqPnJVYJx5Ob7CO7GvA3Wb0ul+u532cxbhwNbDyFXZ5zUkJ5345DS8I5d0
uHtDCFBx0fLTup8EA9DzSRFh7khtA/BzNxkfQjDwdmW4VuLPSbivo7ITVzuGIB3c
LanF6lBE97UnXRiSQapsoD+8VQIv+LRX0I283A2RcAhwBYN+vS1Y7x7cF/uOBiSe
9wY4kg40lNBEH4UGnhzi6tHY/Q0VJSjTi/4MrMWWqwIJ1tseWdS+9GussBcCarFs
bU8iFStuwaNwr3j5A1O2GA8usNU0U7wsfBcYE5AmxsL5PPXE0wvLqhbvJ5EzFryG
AlibxnIglGgTVN/XDSBHVE3hGT0lzXGFpbrUn5/hTvAxLmJEAIvm0KFE69hXSBur
B0lYdPYyRrRpYzBAttH3iYx8IoeqeYeptoRd45M4rokCVAQTAQgAPgIbAwULCQgH
AgYVCAkKCwIEFgIDAQIeAQIXgBYhBMomLGyD3k0vsoozKjpqTbg56qbXBQJdU7bb
BQkHZ4YdAAoJEDpqTbg56qbXvqEP/1AY14abRRf9fw9jo4xqdS4Lm2X9EjbGjllt
yTGBKU0qB2G4T2FysI5fviyZ0UqSTcSjF9dNr5hpquNc+r5l+qA6ICTtPJQGNmKJ
GKqCDuta+xRrSJ/E/76g3xpX1tNPz5a+RTadcQ8u29qhJNef/MTVu/t0iEHXe7YO
7c8hWhRAF9yD23I2QxD6J8BDGNSCFs8p6qyiqXVupje/nrVJWDoP4ip4DmzdDzHG
97jBzy8WDBGxabi6AVMZEd0uEAVzcuUXGYUOE8w29CC4+H0yJ8Ea2EVwcF0XaVRN
1d9+GIqkJDf6pQ/9g/Su6sv4p7xoE0FeVTrz7aXQmsKPJKcOPdrlEpY6BaTZJJp1
SJrToYYdEFpNWzkAA58vS9oht5QzFK/si2DyOSofb/092gIM4XOc1LULqj4zG08W
aNlIadrnBKXJShsKtxEYvWYPnDivXowoUgJJVAzmezrXtubS1ZLSrIABGJ02Ddto
uhK1/rjDKTlBTB9WPWG5DNGaTuizc46KTjgn6cXwGqWhbRsCwneYWAlWotblToal
tRFpWyfGCe7hW5F50eD8kLWDLsmo0BKre+UTGYEkOw1mOA9YqWdR7PLEzT5Q/c4Z
vgBU+bvJVRlYHde4/KTbnrms5YQXJfLX+g6scCCKMPl3gU8Z7izHLRYfzwTP6cE1
yG37WO5XiQJUBBMBCAA+AhsDBQsJCAcCBhUICQoLAgQWAgMBAh4BAheAFiEEyiYs
bIPeTS+yijMqOmpNuDnqptcFAltgyTIFCQV0mHQACgkQOmpNuDnqptf4Jw/+NPk5
FlGdkC03/7t5cAqNUWoJhui4OivXZzeM40+2G0+tFFHI54z/NTwgigWgEVd9zs9U
Tpu58yJ6PFAWSf1zK3sNHwmjdrKgIp0CaQ3GLDw4/CmC+y7gZueamNcTGXQVR0id
/GrI+y+s34/rcby+K2qCfnWAZtuCtj+MdfR8iaCy5s4+KKJ8mpOwnQj/fdEuJVwM
Npt6OLYpDRI3vmNWFwJif+N8+aQKSH8jC2/o+2QuEEa5FbiVeBeMjOJjniv3Vmpc
jN8WR9pKNNsEhWaMb/ZBoIjxBEygxg/QBaJkIX/nFurWDD8poXyfzzojVKR/JpB8
MVMIU25ju/iw3iCjrUDt3hxyrjAwF4EyIiWLh6GQJ8aBjw7yFFhech5Sz6vj6jNQ
xcHea2LpS4UiQNAWKqDwHKwi4AJAaMLn/CLrcWKeqhsZoKfDIZggAIPLeyJscwgs
EFKBBcteBTd0Sxrwva2WgfaqtZbF9hqWMhf2bfB1Q/gsv3+tyanWzMFsbA0NyZCu
YHf62zLywfxXJFtdvdmP8d0Nq437NGFmVKnlvHImzr9+82YsFV6UWEqOXPLX4Oxq
eChjlQAJkXRTg6fJA9jXEulM5yGuDtnZrqj1CUssJ1j4ky002Ldh1ipHpbNTCi35
AASumHnLTqOQ7ETrN4uESqk0HRV9lHd5j6e+Jc6JAlQEEwEIAD4CGwMFCwkIBwIG
FQgJCgsCBBYCAwECHgECF4AWIQTKJixsg95NL7KKMyo6ak24Oeqm1wUCWvy45gUJ
BaLeqAAKCRA6ak24Oeqm16ZdD/9O0TlD0H8XHg1lev1QfUecoRbaye2SQvYmzI0+
6aMDcXxkTTqCBbGM3lgrMmlpeOYygTiAPOIimCUvtyhxmYH6/eJt8fbCxURVvCOT
Wps1Vo3UamqL/ojYKkKSsQNckUChev3ffCLWrtN9ScV9+GycAIwL7d4DxzU43j9e
1qexgsndJzDmTIBpLS3Ap9q5dPmUvvozekK0MSD3F9iH5Wwsu4NflycC/XOR43cp
+O7M3gCanNF32eaBxHdr0pXbLSoDfWvYcyEb0kt6W7pbyJP4ek7kbdKiUuVo6MjK
HljNDaA/8/lC36Wo/HDXGUbZ5tV2xH8hE4htj9WI9x5ISFT5pMfsr8KKrFKpk3+1
xIU2wY4quAQvh7EoviOH8TWoTn0SaHoDg9tTIKqvDjQD2fkbsoNlieCb2nezcRqs
pLM4ytaGh/V4AEHjuDQoYy6szgaUpQkQdfppe+iwon26dvvQYtPMtvuFgRpQCTyk
611Hxq0U2729nJWmZhYxDsiv5mHclO3qNw8WSgTbnXKBtmWT8Hl9bzlTh4Ek+v8L
pLvzipNtnfvi0msRaEPpO3enqu2pIXIpCOYxsLGr+0NWWdzQdIxAmDb7jsNtTn19
p/v6UH/5UPyu/gyYXVBkfOLIENf9WkvHYqIG/LabIx8L+oRIztOkUSDdodytBNl3
XoSMTYkCPQQTAQgAJwUCV81kPgIbAwUJA8JnAAULCQgHAgYVCAkKCwIEFgIDAQIe
AQIXgAAKCRA6ak24Oeqm18TbD/wJ0hnYU5jZQJx20TMBAJEvXbl99TWXkT2eXrS+
PH/Rz+SQ223vuJU6XfnBodDBjPMX3T49f0IMQ4O19mjCEQEjBBnEd/CbKnp0KpMN
zPJ4vxBtQM0T5EApJoF6yI8UtT7n3xAvC9OvQXuJ48AB/i4sw327r02EkP5/UrKy
0z0aJoHdPjGrO/ZxDw0hfU1/rw07FsbkLYK2tRvH8x5vR4UEAeTBa1T+wsVySyLk
AQjZDRk9N2NLf6shR5IcqeT+C3OCr89LbBLGXC3O0D/GdLa77C/CdffO5I5s+LPd
QyUq/2Uf9/gwGMICpmK/oKIkvBoeCAb5nt6ieWoAIpCRkUNGt9LKJDrJ7JgMkStX
L4sy7gRrmaj22ajRx1r+r03tGP9+nJVBbT8VzWvekHXv+/W7ah5XDCQeoE9BR7lz
8dS3MgJZrRV/SXGexqs4tUycR6Y5FGU4KDFxMMiJiqlSl9DuK5Dr5h3KJ3okJoOf
m5s4u8GN9zoxbKVo0qQVmfsuA/YNKKzwKLfD7s4a3IOWUn0a9Z2aELpPiJZR2zu8
W50DgMoTQSI0VeNx1wxtcc0aZtab8QF0Yqxa2AAFccmjAyfsgGXKnaEGa1URevv6
kED9+DebVQfZCphBTJ8bAilVEO3rvEQyD5Xnmto/OE2o6Z4sH5WIPldHMPs++Zkq
txVdJbkCDQRXzWQ+ARAAvXt5B0fcIQNSAGDkROWL37339U/rpsQ8IoLMYPp/r85R
dstUFezTcbMMnMGvpvzKxpYxHtzRZcIoV/tTn7dAjiz1MGVyycfGrn3fjecmHZaw
TlxzvlYeV8rCx7vvNPe26N2zYyNIGPbfbiyTD1EdKbiaRzt6xs3wYJBEAziBSPAS
jvpJe9XC5QphpK00tbwMotocHE01yWTe/+TthWZWjTu5/+7y8gZ5S+qX+XZcGVZa
HGSBob5SdHA1ykyHSK5WSslifTgVC05XbQRERUhMbW1YcxDgrOep2B29sRacWSRs
e+PZzqsbKVIlKFBtr2kTUsBs2EXqFsSKnaerq4qxBPQDPb9la4/zcYfjIMdskIOh
PyV/bFxrDP7J93ar1AXxB4g5ssI23T10k1x5NuNTeHcEQC8PqAZ2rMcM89+Z/RRW
OLXnvo8SaF4y7bn/NuHWa+qexXZgdmwZdWlsEHU8fOsozUMfc9+oVMVDl6Wu+S7G
GBGtIpqJYG5oYPsNYyIQhXZAqZi63FhLQUnnuUVFoqjQCJW+0MtWHR52OQu+SC5/
GzqgA+cu3mS6j+dr+2BYmNjbQS7rd1C0huk9g+sAubb44wrx4Cfe06DsexQxdBLm
ECpG8f/xoxWhbuqMyV2C2GTkRdOmXKWQ0II/P11OpP+DxEGYrF6WdF+CPcLHLh0A
EQEAAYkCPAQYAQgAJgIbDBYhBMomLGyD3k0vsoozKjpqTbg56qbXBQJnW1/LBQkS
0c9lAAoJEDpqTbg56qbXHwEQAIqwM3OfKVFHlzBZJ/ZJ3FPpPDk74qchDvKUJqBz
Z3kTq/vb82fb4Ji71wyAqpMG8EY8Y8n2k43ffc3yc1RTGLFKHet07LCHu1QaJdit
JE0NPFQZPtIbJycQAEG/5r4ArNKryItAuxypd5Q4sdo8obuAav8MCUU1nxYUZXCu
6GiwKxyaFQosJcoL4XuuNYmIREgVT+q9gHPPb4aoGJLx+p6cNm/UlvCgoiAd6GOg
kqtYJFhelBrYifAWjZPxiCeBN8w61e1rEGi4jiQteDhuIt4xmx4yoiahq5UMeZ+b
uR3YRxpm1MG58ixUJhyQI1IF/ACOAZAgo/2ihk33/GRVpaFav4UOGmTO75328ZOQ
Hs5VGzvzKtXioFpm9FhPLH+tPKj9We9pb3NcNmaNFWPvrYGduvZZKtIYLMliFByN
rEHpdPqNxFN7iw48fT/bsBu4y10oQ3LbwJ5LHddV/a/Jyd4Fcn3cNRPrxGhrGMPD
vpk/sBk8lZUM6MxmZI0Cn0bPR0/P7Et6jGJ39PLorY6wmfAH9Qk53YkVvKIzZ0pr
azFy0fyhYSipchCtIBn4XYOdahSsi0+F/BP6INt1MKJPHYBTp3JygzmKa4b34wPL
0MfOIrd3vu5KG2LZqA3Cg3mWdXdUrxcYYZJ2HdN2BG5vSzlskbZiSqGAjKm5+N8E
Ug6C
=qeP0
-----END PGP PUBLIC KEY BLOCK-----
